static/assets/img/icons/theme/general/settings-1.svg

<svg width="24px" height="24px" viewBox="0 0 24 24" version="1.1" xmlns="http://www.w3.org/2000/svg" xmlns:xlink="http://www.w3.org/1999/xlink">
    <title>Icon For Settings-1</title>
    <g stroke="none" stroke-width="1" fill="none" fill-rule="evenodd">
        <rect opacity="0" x="0" y="0" width="24" height="24"></rect>
        <path d="M7,3 L17,3 C19.209139,3 21,4.790861 21,7 C21,9.209139 19.209139,11 17,11 L7,11 C4.790861,11 3,9.209139 3,7 C3,4.790861 4.790861,3 7,3 Z M7,9 C8.1045695,9 9,8.1045695 9,7 C9,5.8954305 8.1045695,5 7,5 C5.8954305,5 5,5.8954305 5,7 C5,8.1045695 5.8954305,9 7,9 Z" fill="#000000"></path>
        <path d="M7,13 L17,13 C19.209139,13 21,14.790861 21,17 C21,19.209139 19.209139,21 17,21 L7,21 C4.790861,21 3,19.209139 3,17 C3,14.790861 4.790861,13 7,13 Z M17,19 C18.1045695,19 19,18.1045695 19,17 C19,15.8954305 18.1045695,15 17,15 C15.8954305,15 15,15.8954305 15,17 C15,18.1045695 15.8954305,19 17,19 Z" fill="#000000" opacity="0.3"></path>
    </g>
</svg>

<svg height="24" viewBox="0 0 24 24" width="24" xmlns="http://www.w3.org/2000/svg"><g fill="none" fill-rule="evenodd"><path d="m0 0h24v24h-24z" opacity="0"/><g fill="#000"><path d="m7 3h10c2.209139 0 4 1.790861 4 4s-1.790861 4-4 4h-10c-2.209139 0-4-1.790861-4-4s1.790861-4 4-4zm0 6c1.1045695 0 2-.8954305 2-2s-.8954305-2-2-2-2 .8954305-2 2 .8954305 2 2 2z"/><path d="m7 13h10c2.209139 0 4 1.790861 4 4s-1.790861 4-4 4h-10c-2.209139 0-4-1.790861-4-4s1.790861-4 4-4zm10 6c1.1045695 0 2-.8954305 2-2s-.8954305-2-2-2-2 .8954305-2 2 .8954305 2 2 2z" opacity=".3"/></g></g></svg>
